X: 399
T: Katty Nowlan - 1st Setting
R: air, waltz
%S: s:2 b:16(8+8)
B: O'Neill's 1850 #399
Q: "Tenderly."
O: J.O'Neill
Z: Chris Falt, cfalt@trytel.com
M: 3/4
L: 1/8
K: Dm
   Af>e | (d2A2)GB    | (AF D)>(E FG) | (A2f2)(e>f) | d3 |\
| (fef) | (d2A2)(G>B) | (AF D)>(E FG) | A2d2 (^c/d/e/c/) | d3 |]
[| (d/e/) fg | a3(gfe) | g3(fed) | f2(f2-(3(f/e/d/) (3(c/A/G/)) | A3 |\
| (BAG) | (F>E) (.F.G.A._B) | (cd).A3-.A | def2(e/d/^c/e/) | d3 |]
